!!!!SEGMENT: pl-wn--mus-iii-104-138_zelenski-wladyslaw--czy-aniolek-czy-djabelek.krn
!!!cenid: 18xx:3788
!!!COM: Żeleński, Władysław
!!!COM-rismID: pe41024455
!!!CDT: 1837/07/06-1921/01/23
!!!CNT: Polish
!!!OTL: Czy aniołek, czy djabełek?
!!!PDT:
!!!AGN:
!!!SMS-siglum: PL-Wn
!!!SMS-shelfmark: Mus.III.104.138
!!!SMS-shelfwork: W
!!!SMS-variant:
!!!SMS-altvar:
!!!NIFC-rismSourceID:
!!!NIFC-rismChildID:
!!!NIFC-islandoraID:
!!!URL-pdf-islandora:
!!!URL-scan: https://polona.pl/item/czy-aniolek-czy-djabelek,ODE1NjA4OTA/1 @EN{Scan on Polona} @PL{Skany w portalu Polona}
!!!ONB-nifc:
!!!AIN: 2 piano 1 soprn
!!!key: E-
**kern	**kern	**dynam	**fing	**kern	**text	**dynam
*part3	*part2	*part2	*part2	*part1	*part1	*part1
*staff3	*staff2	*	*	*staff1	*staff1	*
*I"Fortepian.	*I"Fortepian.	*	*	*I"Śpiew.	*	*
*Ipiano	*Ipiano	*	*	*Isoprn	*	*
*ICklav	*ICklav	*	*	*ICvox	*	*
*IGacmp	*IGacmp	*	*	*IGsolo	*	*
*clefF4	*clefG2	*	*	*clefG2	*	*
*k[b-e-a-]	*k[b-e-a-]	*	*	*k[b-e-a-]	*	*
*E-:	*E-:	*	*	*E-:	*	*
*M2/4	*M2/4	*	*	*M2/4	*	*
=1	=1	=1	=1	=1	=1	=1
*^	*	*	*	*	*	*
*xywh-#2:596,1359,3097,527	*xywh-#2:596,1359,3097,527	*xywh-#2:596,1359,3097,527	*	*	*xywh-#2:148,325,3774,1039	*	*
!!LO:TX:B:a:t=Allegretto scherzando.
!LO:N:vis=2	!	!	!	!	!	!	!
!LO:TX:t=P:problem=brak wyświetlania chorągiewki	!	!	!	!	!	!	!
(8EE-/	2EE-\	16r	p	.	2r	.	.
.	.	(16G/LL	.	.	.	.	.
4BB-^/)	.	16B-/	.	.	.	.	.
.	.	16e-/JJ	.	.	.	.	.
.	.	8g/L)	.	.	.	.	.
8C/	.	8fJ 8An'/	.	.	.	.	.
=2	=2	=2	=2	=2	=2	=2	=2
!LO:N:vis=2	!	!	!	!	!	!	!
!LO:TX:t=P:problem=brak wyświetlania chorągiewki	!	!	!	!	!	!	!
(8EE-/	2EE-\	16r	.	.	2r	.	.
.	.	(16B-/LL	.	.	.	.	.
4D^/)	.	16f/	.	.	.	.	.
.	.	16a-/JJ	.	.	.	.	.
.	.	8cc/L)	.	.	.	.	.
8E-/	.	8b-J 8d-X'/	.	.	.	.	.
=3	=3	=3	=3	=3	=3	=3	=3
(8EE-/	4.EE-\	16r	<	.	2r	.	.
.	.	(16c/LL	.	.	.	.	.
4F^/)	.	16f/	.	.	.	.	.
.	.	16an/JJ	.	.	.	.	.
.	.	8dd/L)	.	.	.	.	.
8An'/	8ryy	8ccJ 8e-'/	.	.	.	.	.
=4	=4	=4	=4	=4	=4	=4	=4
(8E-/	4.E-\	16r	.	.	2r	.	.
.	.	(<16f/LL	[	.	.	.	.
4d/) 4B-^>/	.	16a-X/	.	.	.	.	.
.	.	16b-/JJ	.	.	.	.	.
.	.	8gg\L)	.	.	.	.	.
*clefG2	*	*	*	*	*	*	*
(16a-/LL	8ryy	(16ff\L	.	.	.	.	.
16e-/JJ	.	16cc\JJ	.	.	.	.	.
*v	*v	*	*	*	*	*	*
!!LO:LB:g=original
=5	=5	=5	=5	=5	=5	=5
*xywh-#2:510,2164,3113,554	*xywh-#2:510,2164,3113,554	*	*	*xywh-#2:521,1871,3252,319	*	*
8g/)	8ee-\)	.	.	2r	.	.
4f^/	4dd^\	>	.	.	.	.
(16e-/LL	(16cc/LL	.	.	.	.	.
16B-/JJ	16g/JJ	.	.	.	.	.
=6	=6	=6	=6	=6	=6	=6
8d/)	8b-\)	.	.	2r	.	.
4c^/	4a-^>/	]	.	.	.	.
*clefF4	*	*	*	*	*	*
!	!LO:TX:i:b:t=riten.	!	!	!	!	!
(16G\LL	(>16en/LL	.	.	.	.	.
16B-\JJ	16g/JJ	.	.	.	.	.
=7	=7	=7	=7	=7	=7	=7
*^	*^	*	*	*	*	*
2A-/)	2BB-;\	2f;/)	2d\	.	.	2r;	.	.
=8	=8	=8	=8	=8	=8	=8	=8	=8
!	!	!LO:TX:i:A:t=a tempo	!	!	!	!	!	!LO:DY:a
!LO:N:vis=2	!	!	!	!	!	!	!	!
!LO:TX:t=P:problem=brak wyświetlania chorągiewki	!	!	!	!	!	!	!	!
8EE-/	2EE-\	16r	16ryy	p	.	8.g/	Kto	p
.	.	(<16A-/LL	4A-\	.	.	.	.	.
4BB-/	.	16d/	.	.	.	.	.	.
.	.	16f/JJ	.	.	.	16f/	mi	.
.	.	8b-'</L)	.	.	.	8b-\	po-	.
.	.	.	16ryy	.	.	.	.	.
8BB-/	.	8a-J 8d 8A-/	8ryy	.	.	8a-/	-wie,	.
=9	=9	=9	=9	=9	=9	=9	=9	=9
!LO:N:vis=2	!	!	!	!	!	!	!	!
!LO:TX:t=P:problem=brak wyświetlania chorągiewki	!	!	!	!	!	!	!	!
8EE-/	2EE-\	16r	16ryy	.	.	8.g/	kto	.
.	.	(<16A-/LL	4A-\	.	.	.	.	.
4BB-/	.	16d/	.	.	.	.	.	.
.	.	16f/JJ	.	.	.	16f/	od-	.
.	.	8b-'</L)	.	.	.	8b-\	-gad-	.
.	.	.	16ryy	.	.	.	.	.
8BB-/	.	8fJ 8d 8A-'/	8ryy	.	.	8f/	-nie,	.
!!LO:LB:g=original
=10	=10	=10	=10	=10	=10	=10	=10	=10
*xywh-#2:570,3029,3033,591	*xywh-#2:570,3029,3033,591	*xywh-#2:570,3029,3033,591	*xywh-#2:570,3029,3033,591	*	*	*xywh-#2:617,2697,2974,346	*	*
!LO:N:vis=2	!	!	!	!	!	!	!	!
!LO:TX:t=P:problem=brak wyświetlania chorągiewki	!	!	!	!	!	!	!	!
8EE-/	2EE-\	16r	16ryy	.	.	8.g/	W głę-	.
.	.	(<16G/LL	4G\	.	.	.	.	.
4BB-/	.	16B-/	.	.	.	.	.	.
.	.	16e-/JJ	.	.	.	16a-/	-bi	.
.	.	8g'</L)	.	.	.	8b-\	ocz-	.
.	.	.	16ryy	.	.	.	.	.
8BB-/	.	8B-J 8G'/	8ryy	.	.	8cc\	-nych	.
=11	=11	=11	=11	=11	=11	=11	=11	=11
!LO:N:vis=2	!	!	!	!	!	!	!	!
!LO:TX:t=P:problem=brak wyświetlania chorągiewki	!	!	!	!	!	!	!	!
8GG/	2GG\	16r	16ryy	.	.	8dd\	zwier-	.
.	.	(<16B-/LL	4B-\	.	.	.	.	.
4G 4E-/	.	16e-/	.	.	.	8ff\	-cia-	.
.	.	16g/JJ	.	.	.	.	.	.
.	.	8b-'</L)	.	.	.	8ee-\	-de-	.
.	.	.	16ryy	.	.	.	.	.
8G 8E-/	.	8e-J 8B-'/	8ryy	.	.	8b-\	-łek,	.
*	*	*v	*v	*	*	*	*	*
=12	=12	=12	=12	=12	=12	=12	=12
!LO:TX:t=P:problem=brak wyświetlania chorągiewki	!	!	!	!	!LO:TX:i:a:t=con espress.	!	!
!LO:N:vis=2	!	!	!	!	!	!	!
8C/	2C\	8r	.	.	8.dd\	Co	.
(<4G/	.	(4g 4e-/	.	.	.	.	.
.	.	.	.	.	16cc\	u	.
.	.	.	.	.	8g/	dziew-	.
8c 8G'</)	.	8an 8e-/)	.	.	8an/	-cząt	.
=13	=13	=13	=13	=13	=13	=13	=13
*	*	*^	*	*	*	*	*
!LO:N:vis=2	!	!	!	!	!	!	!	!
!LO:TX:t=P:problem=brak wyświetlania chorągiewki	!	!	!	!	!	!	!	!
8GG/	2GG\	16r	16ryy	.	.	4b-\	sie-	.
.	.	(<16d/LL	4d\	.	.	.	.	.
(<4B- 4D/	.	16g/	.	.	.	.	.	.
.	.	16b-/JJ	.	.	.	.	.	.
.	.	8dd'</L)	.	.	.	8b-\	-dzi	.
.	.	.	16ryy	.	.	.	.	.
8B- 8D'</)	.	8b-J 8g 8d'/	8ryy	.	.	8ee-\	u	.
*	*	*v	*v	*	*	*	*	*
!!LO:LB:g=original
=14	=14	=14	=14	=14	=14	=14	=14
*xywh-#2:586,3899,3033,1172	*xywh-#2:586,3899,3033,1172	*xywh-#2:586,3899,3033,1172	*	*	*xywh-#2:586,3580,3012,341	*	*
!LO:N:vis=2	!	!	!	!	!	!	!
!LO:TX:t=P:problem=brak wyświetlania chorągiewki	!	!	!	!	!	!	!
8C/	2C\	8r	.	.	8dd\	dziew-	.
4c [<4G/	.	(4g 4e-/	.	.	8cc\	-cząt	.
.	.	.	.	.	8g/	sie-	.
8An 8G/]	.	8an 8e-'/)	.	.	8an/	-dzi	.
=15	=15	=15	=15	=15	=15	=15	=15
*	*	*^	*	*	*	*	*
!LO:N:vis=2	!	!	!	!	!	!	!	!
!LO:TX:t=P:problem=brak wyświetlania chorągiewki	!	!	!	!	!	!	!	!
8GG/	2GG\	16r	16ryy	.	.	4b-\	na	.
.	.	(<16d/LL	4d\	.	.	.	.	.
<4B- [<4D/	.	16g/	.	.	.	.	.	.
.	.	16b-/JJ	.	.	.	.	.	.
.	.	8ee-'</L)	.	.	.	8b-\	dnie,	.
.	.	.	16ryy	.	.	.	.	.
8B- 8D'/]	.	8ddJ 8b- 8g 8d'/	8ryy	.	.	8r	.	.
*v	*v	*	*	*	*	*	*	*
=16	=16	=16	=16	=16	=16	=16	=16
(4EEn/	16r	16ryy	.	.	8r	.	.
.	(<16d-X/LL	8.d-\	.	.	.	.	.
.	16g/	.	.	.	8b-/L	Czy	.
.	16b-/JJ	.	.	.	.	.	.
8FF/L)	8a-L 8c/)	4ryy	.	.	8a-/J	.	.
8BB-'/J	8enJ 8d-/	.	.	.	8en/	a-	.
=17	=17	=17	=17	=17	=17	=17	=17
!	!	!	!	!	!	!	!LO:DY:a
(8AA-/L	(8f/L	4.c\	<	.	8f/L	-nio-	<
8GG/	8g/	.	.	.	8g/J	.	.
8FF/J)	8a-/J)	.	.	.	4a-/	-łek,	[[
16r	16r	8ryy	[	.	.	.	.
*clefG2	*	*	*	*	*	*	*
(32en/LLL	(32een\LLL	.	.	.	.	.	.
32g/JJJ	32gg\JJJ	.	.	.	.	.	.
*	*v	*v	*	*	*	*	*
!!LO:PB:g=original
=18	=18	=18	=18	=18	=18	=18
*xywh-#3:309,1093,3070,623	*xywh-#3:309,1093,3070,623	*	*	*xywh-#3:320,618,3108,511	*	*
8f/)	8ff\)	.	.	8r	.	.
8r	8r	.	.	(8bn\L	Czy	.
4r	4r	.	.	8dd\J)	.	.
.	.	.	.	16r	.	.
.	.	.	.	16cc\	dja-	.
=19	=19	=19	=19	=19	=19	=19
*^	*^	*	*	*	*	*
!	!	!	!	!	!	!LO:TX:i:a:t=poco rit.	!	!LO:DY:a
8r	8ryy	8r	8ryy	.	.	(4.f/	-be-	>
*clefF4	*	*	*	*	*	*	*	*
!	!	!LO:TX:i:a:t=poco rit.	!	!	!	!	!	!
(4A-/	[4.BB-\	(4f/	[4.d\	>	.	.	.	.
8G/)	.	8g/)	.	.	.	8g/)	.	]]
=20	=20	=20	=20	=20	=20	=20	=20	=20
2F/	2BB-;\]	2a-;/	2d\]	]	.	2a-;/	-łek?	.
=21	=21	=21	=21	=21	=21	=21	=21	=21
!LO:TX:t=P:problem=brak wyświetlania chorągiewki	!	!	!LO:TX:i:a:t=a tempo	!	!	!LO:TX:i:a:t=a tempo	!	!
!LO:N:vis=2	!	!	!	!	!	!	!	!
8EE-/	2EE-\	16r	16ryy	p	.	8.g/	Bo	.
.	.	(<16A-/LL	4A-\	.	.	.	.	.
4BB-/	.	16d/	.	.	.	.	.	.
.	.	16f/JJ	.	.	.	16f/	że	.
.	.	8b-'</L)	.	.	.	8b-\	sie-	.
.	.	.	16ryy	.	.	.	.	.
8BB-/	.	8a-J 8d 8A-'/	8ryy	.	.	8f/	-dzi,	.
=22	=22	=22	=22	=22	=22	=22	=22	=22
!LO:TX:t=P:problem=brak wyświetlania chorągiewki	!	!	!	!	!	!	!	!
!LO:N:vis=2	!	!	!	!	!	!	!	!
8EE-/	2EE-\	16r	16ryy	.	.	8.g/	nie	.
.	.	(<16A-/LL	4A-\	.	.	.	.	.
4BB-/	.	16d/	.	.	.	.	.	.
.	.	16f/JJ	.	.	.	16f/	wiem	.
.	.	8b-'</L)	.	.	.	8b-\	co	.
.	.	.	16ryy	.	.	.	.	.
8BB-/	.	8fJ 8d 8A-'/	8ryy	.	.	8a-/	to,	.
!!LO:LB:g=original
=23	=23	=23	=23	=23	=23	=23	=23	=23
*xywh-#3:362,2031,3022,591	*xywh-#3:362,2031,3022,591	*xywh-#3:362,2031,3022,591	*xywh-#3:362,2031,3022,591	*	*	*xywh-#3:389,1700,2985,367	*	*
!LO:TX:t=P:problem=brak wyświetlania chorągiewki	!	!	!	!	!	!	!	!
!LO:N:vis=2	!	!	!	!	!	!	!	!
8EE-/	2EE-\	16r	16ryy	.	.	[4g/	Ja-	.
.	.	(<16G/LL	4G\	.	.	.	.	.
4BB-/	.	16B-/	.	.	.	.	.	.
.	.	16e-/JJ	.	.	.	.	.	.
.	.	8g'</L)	.	.	.	16g/]	.	.
.	.	.	16ryy	.	.	16a-/	-kieś	.
8BB-/	.	8B-J 8G'/	8ryy	.	.	16b-\	chło-	.
.	.	.	.	.	.	16cc\	-pię	.
=24	=24	=24	=24	=24	=24	=24	=24	=24
!LO:TX:t=P:problem=brak wyświetlania chorągiewki	!	!	!	!	!	!	!	!
!LO:N:vis=2	!	!	!	!	!	!	!	!
8GG/	2GG\	16r	16ryy	.	.	8dd\	bez	.
.	.	(<16B-/LL	4B-\	.	.	.	.	.
4G 4E-/	.	16e-/	.	.	.	8ff\	skrzy-	.
.	.	16g/JJ	.	.	.	.	.	.
.	.	8b-'</L)	.	.	.	8ee-\	-de-	.
.	.	.	16ryy	.	.	.	.	.
8G 8E-/	.	8e-J 8B-'/	8ryy	.	.	8b-\	-łek,	.
*	*	*v	*v	*	*	*	*	*
=25	=25	=25	=25	=25	=25	=25	=25
!LO:TX:t=P:problem=brak wyświetlania chorągiewki	!	!	!	!	!	!	!
!LO:N:vis=2	!	!	!	!	!	!	!
8C/	2C\	8r	.	.	8r	.	.
!	!	!	!	!	!LO:TX:i:a:t=espress.	!	!
[<4G/	.	(<4g 4e-/	.	.	8cc/L	Wi-	.
.	.	.	.	.	8g/J	.	.
8c 8G'</]	.	8an 8e-'/)	.	.	8an/	-dzi	.
!!LO:LB:g=original
=26	=26	=26	=26	=26	=26	=26	=26
*	*	*^	*	*	*	*	*
*xywh-#3:382,2960,2969,586	*xywh-#3:382,2960,2969,586	*xywh-#3:382,2960,2969,586	*xywh-#3:382,2960,2969,586	*	*	*xywh-#3:344,2661,2985,319	*	*
!LO:TX:t=P:problem=brak wyświetlania chorągiewki	!	!	!	!	!	!	!	!
!LO:N:vis=2	!	!	!	!	!	!	!	!
8GG/	2GG\	16r	16ryy	.	.	4b-\	każ-	.
.	.	(<16d/LL	4d\	.	.	.	.	.
4B- [<4D/	.	16g/	.	.	.	.	.	.
.	.	16b-/JJ	.	.	.	.	.	.
.	.	8dd'</L)	.	.	.	8b-\	-dy;	.
.	.	.	16ryy	.	.	.	.	.
8B- 8D'</]	.	8b-J 8g 8d'/	8ryy	.	.	8r	.	.
*	*	*v	*v	*	*	*	*	*
=27	=27	=27	=27	=27	=27	=27	=27
!LO:TX:t=P:problem=brak wyświetlania chorągiewki	!	!	!	!	!	!	!
!LO:N:vis=2	!	!	!	!	!	!	!
8G/	2G\	8r	.	.	8r	.	.
4e- [<4B-/	.	(4b- 4g/	.	.	8ee-\	lecz	.
.	.	.	.	.	8b-\L	rzecz	.
8e- 8B-'</]	.	8cc 8g'/)	.	.	8cc\J	.	.
=28	=28	=28	=28	=28	=28	=28	=28
*	*	*^	*	*	*	*	*
8F#X/	4.F#\	16r	16ryy	.	.	4dd\	o-	.
.	.	(<16d/LL	4d\	.	.	.	.	.
4c 4An/	.	16an/	.	.	.	.	.	.
.	.	16cc/JJ	.	.	.	.	.	.
.	.	8ee-'</L)	.	.	.	8dd\	-to:	.
.	.	.	16ryy	.	.	.	.	.
8Bn 8A-X 8Fn\	8ryy	8ddJ 8a-X 8d'/	8ryy	.	.	8r	.	.
=29	=29	=29	=29	=29	=29	=29	=29	=29
!LO:TX:t=P:problem=brak wyświetlania chorągiewki	!	!	!	!	!	!	!	!
!LO:N:vis=2	!	!	!	!	!	!	!	!
8E-/	2E-\	16r	16ryy	.	.	8r	.	.
.	.	(<16c/LL	4c\	.	.	.	.	.
!	!	!	!	!LO:HP:b:t=cresc.:dur=1qs:ext=ud	!	!	!	!LO:HP:a:t=cresc.:dur=1qs:ext=ud
4B-X/	.	16f#X/	.	<	.	8dd\L	Czy	<
.	.	16g/JJ	.	.	.	.	.	.
.	.	8cc'</L)	.	.	.	8cc\J	.	.
.	.	.	16ryy	.	.	.	.	.
8B-/	.	8f#J 8c'/	8ryy	.	.	8f#X/	a-	.
!!LO:LB:g=original
=30	=30	=30	=30	=30	=30	=30	=30	=30
*xywh-#3:323,3871,3065,762	*xywh-#3:323,3871,3065,762	*xywh-#3:323,3871,3065,762	*xywh-#3:323,3871,3065,762	*	*	*xywh-#3:382,3546,2948,367	*	*
!LO:TX:t=P:problem=brak wyświetlania chorągiewki	!	!	!	!	!	!	!	!
!LO:N:vis=2	!	!LO:TX:i:b:t=un poco	!	!	!	!LO:TX:i:a:t=un poco	!	!
8En/	2En\	16r	16ryy	.	.	8g/	-nio-	.
.	.	(<16c/LL	4c\	.	.	.	.	.
4B-/	.	16f#X/	.	.	.	8an/	-łek,	.
.	.	16g/JJ	.	.	.	.	.	.
.	.	8cc'</L)	.	.	.	8b-\	czy	.
.	.	.	16ryy	.	.	.	.	.
8B-/	.	8gJ 8c'/	8ryy	.	.	8cc\	a-	.
=31	=31	=31	=31	=31	=31	=31	=31	=31
!LO:TX:t=P:problem=brak wyświetlania chorągiewki	!	!	!	!	!	!	!	!
!LO:N:vis=2	!	!	!	!	!	!	!	!
8F/	2F\	16r	16ryy	.	.	8.dd\	-nio-	.
.	.	(<16f/LL	4f\	.	.	.	.	.
4d 4B-/	.	16an/	.	.	.	.	.	.
.	.	16b-/JJ	.	.	.	16dd\	-łek,	.
.	.	8ee-'</L)	.	.	.	8ee-\	czy	.
.	.	.	16ryy	.	.	.	.	.
8d 8B-/	.	8ddJ 8b- 8f'/	8ryy	.	.	8dd\	dja-	.
*	*	*v	*v	*	*	*	*	*
=32	=32	=32	=32	=32	=32	=32	=32
!LO:TX:t=P:problem=brak wyświetlania chorągiewki	!	!	!	!	!	!	!
!LO:N:vis=2	!	!	!	!	!	!	!
8F/	2F\	8r	.	.	4gg\	-be-	.
(<4e- 4c/	.	(4gg 4b- 4g^\	>	.	.	.	.
!	!	!	!	!	!	!	!LO:DY:a
.	.	.	.	.	4an/	.	>
8c'</)	.	8an 8e-/)	]]	.	.	.	.
=33	=33	=33	=33	=33	=33	=33	=33
*	*	*^	*	*	*	*	*
!LO:TX:t=P:problem=brak wyświetlania chorągiewki	!	!	!	!	!	!	!	!
!LO:N:vis=2	!	!	!	!	!	!	!	!
8BB-/	[2BB-\	16r	16ryy	p	.	4b-\	-łek?	]
.	.	(<16d/LL	4d\	.	.	.	.	.
(4F/	.	16f/	.	.	.	.	.	.
.	.	16b-/JJ	.	.	.	.	.	.
.	.	8dd/L)	.	.	.	4r	.	.
.	.	.	16ryy	.	.	.	.	.
8F#X/	.	8ccJ 8e-'/	8ryy	.	.	.	.	.
!!LO:PB:g=original
=34	=34	=34	=34	=34	=34	=34	=34	=34
*xywh-#4:506,1024,3033,725	*xywh-#4:506,1024,3033,725	*xywh-#4:506,1024,3033,725	*xywh-#4:506,1024,3033,725	*	*	*xywh-#4:458,641,3124,447	*	*
8G/L	2BB-\]	16r	16ryy	.	.	2r	.	.
.	.	(<16f/LL	4f\	.	.	.	.	.
8G#/	.	16cc/	.	.	.	.	.	.
.	.	16ee-/JJ	.	.	.	.	.	.
8An/	.	8gg/L)	.	<	.	.	.	.
.	.	.	16ryy	.	.	.	.	.
8B-/J)	.	8ffJ 8a-X'/	8ryy	.	.	.	.	.
*clefG2	*	*	*	*	*	*	*	*
=35	=35	=35	=35	=35	=35	=35	=35	=35
!LO:TX:t=P:problem=brak wyświetlania chorągiewki	!	!	!	!	!	!	!	!
!LO:N:vis=2	!	!	!	!	!	!	!	!
(8B-/L	[2B-\	16r	16ryy	.	.	2r	.	.
.	.	(<16g/LL	4g\	.	.	.	.	.
8c/	.	16cc/	.	.	.	.	.	.
.	.	16een/JJ	.	.	.	.	.	.
8d/	.	8aan/L)	.	.	.	.	.	.
.	.	.	16ryy	.	.	.	.	.
8en/J	.	8ggJ 8b-'/	8ryy	.	.	.	.	.
=36	=36	=36	=36	=36	=36	=36	=36	=36
!LO:TX:t=P:problem=brak wyświetlania chorągiewki	!	!	!	!	!	!	!	!
!LO:N:vis=2	!	!	!	!	!	!	!	!
8f/L	2B-\_	16r	16ryy	.	.	2r	.	.
.	.	(<16cc/LL	4cc\	.	.	.	.	.
8f#X/	.	16ee-X/	.	.	.	.	.	.
.	.	16aan/JJ	.	.	.	.	.	.
8g/	.	8ddd/L)	.	.	.	.	.	.
.	.	.	16ryy	.	.	.	.	.
8an/J	.	8cccJ 8ee-'/	8ryy	.	.	.	.	.
*	*	*v	*v	*	*	*	*	*
=37	=37	=37	=37	=37	=37	=37	=37
8b-/)	8B-\]	8bb- 8dd'/	.	.	2r	.	.
4dd^\	8ryy	4ddd^\	[ f	.	.	.	.
.	4ryy	.	.	.	.	.	.
(16b-/LL	.	(16bb-\LL	.	.	.	.	.
16f#X/JJ	.	16ff#X\JJ	.	.	.	.	.
*v	*v	*	*	*	*	*	*
!!LO:LB:g=original
=38	=38	=38	=38	=38	=38	=38
*xywh-#4:484,1995,3065,607	*xywh-#4:484,1995,3065,607	*	*	*xywh-#4:516,1691,3054,383	*	*
8an/L)	8aan\L)	.	.	2r	.	.
(16g/L	(16gg\L	.	.	.	.	.
16d/JJ	16dd\JJ	.	.	.	.	.
8fn/L)	8ffn\L)	.	.	.	.	.
8e-'/J	8ee-'\J	.	.	.	.	.
*clefF4	*	*	*	*	*	*
=39	=39	=39	=39	=39	=39	=39
8d'\L	8dd'\L	.	.	2r	.	.
(16B-\L	(16b-\L	p	.	.	.	.
16F#X\JJ	16f#X\JJ	.	.	.	.	.
8An\L)	8an/L)	.	.	.	.	.
8G'\J	8g'/J	.	.	.	.	.
=40	=40	=40	=40	=40	=40	=40
8Fn'\L	8fn'/L	>	.	2r	.	.
(16E-\L	(16e-/L	.	.	.	.	.
16BB-\JJ	16B-/JJ	.	.	.	.	.
8D/L)	8d/L)	]	.	.	.	.
(16C/L	(16c/L	.	.	.	.	.
16AAn/JJ	16An/JJ	.	.	.	.	.
=41	=41	=41	=41	=41	=41	=41
8GG/)	8G/)	.	.	8r	.	.
!	!	!	!	!LO:TX:i:a:t=leggiero	!	!
4G 4D\	8r	.	.	(8g/L	Bo	.
!	!LO:TX:i:b:t=leggiero	!	!	!	!	!
.	([4d^>/	.	.	8b-/J)	.	.
8G 8D\	.	.	.	8f#X/	raz	.
!!LO:LB:g=original
=42	=42	=42	=42	=42	=42	=42
*xywh-#4:532,2997,3054,522	*xywh-#4:532,2997,3054,522	*	*	*xywh-#4:543,2624,3044,378	*	*
8GG/	8.d/L]	.	.	8g/	na	.
4G 4D\	.	.	.	8g/	cię	.
.	16e-/K	.	.	.	.	.
.	8d'/)	.	.	8b-\	tak	.
8G 8D\	8c/J	.	.	8f#X/	z pod	.
=43	=43	=43	=43	=43	=43	=43
8GG/	(16B-/LL	.	.	8.g/	po-	.
.	16An/)	.	.	.	.	.
4G 4D\	16B-'/	.	.	.	.	.
.	16c'/JJ	.	.	16an/	-wiek	.
.	8d/L	.	.	16b-\	syp-	.
.	.	.	.	16a/	-nie	.
8G 8D\	(16g/L	.	.	16b-\	rajs-	.
.	16e-/JJ	.	.	16cc\	-kich	.
=44	=44	=44	=44	=44	=44	=44
8GG/	8.d/L)	.	.	8dd\	rój	.
!	!	!	!	!	!	!LO:DY:a
4B- 4D\	.	.	.	8dd\	świa-	<
.	(16g/Jk	<	.	.	.	.
.	16b-\LL	.	.	(8ff\L	-te-	.
.	16dd\	.	.	.	.	.
8B- 8D\	16gg\	.	.	8ee-\J)	.	[[
.	16aan\JJ	[[	.	.	.	.
!!LO:LB:g=original
=45	=45	=45	=45	=45	=45	=45
*xywh-#4:504,3839,3012,725	*xywh-#4:504,3839,3012,725	*	*	*xywh-#4:546,3551,2980,351	*	*
8GG/	8bb-\L)	.	.	4dd\	-łek,	.
4d 4B-\	(8ddd\J	.	.	.	.	.
.	8fff\L)	.	.	4r	.	.
8d 8B-\	8eee-'\J	.	.	.	.	.
=46	=46	=46	=46	=46	=46	=46
8G\	(8.ddd\L	.	.	2r	.	.
4d 4B-\	.	>	.	.	.	.
.	16ccc\Jk	.	.	.	.	.
.	16bb-\LL	.	.	.	.	.
.	16aan\	.	.	.	.	.
8d 8B-\	16gg\	.	.	.	.	.
.	16ff\JJ	]]	.	.	.	.
=47	=47	=47	=47	=47	=47	=47
8C/	8.ee-\L	p	.	8r	.	.
!	!	!	!	!	!	!LO:DY:a
4An 4G\	.	.	.	8g/L	Że	<
.	16dd\Jk	.	.	.	.	.
.	16cc/LL	.	.	8an/J	.	.
.	16b-/	.	.	.	.	.
8A 8G\	16an/	.	.	8b-\	choć	.
.	16g/JJ	.	.	.	.	.
=48	=48	=48	=48	=48	=48	=48
8AAn/	16f#X/LL	.	.	4dd\	przy-	.
.	16g/	.	.	.	.	.
4An 4G\	16an/	.	.	.	.	.
.	16g/JJ	.	.	.	.	.
.	8e-/)	.	.	8cc\	-siądz	[[
8A 8G\	8r	.	.	8r	.	.
!!LO:PB:g=original
=49	=49	=49	=49	=49	=49	=49
*xywh-#5:331,1067,2964,559	*xywh-#5:331,1067,2964,559	*	*	*xywh-#5:363,497,2964,645	*	*
8C/	16r	.	.	8r	.	.
.	8ee-^\L	.	.	.	.	.
4An 4G\	.	.	.	8g/L	go-	.
.	16dd\Jk	.	.	.	.	.
!	!	!	!	!	!	!LO:DY:a
.	16cc\LL	<	.	8an/J	.	<
.	16b-\	.	.	.	.	.
8A 8G\	16an\	.	.	8b-\	-tów	.
.	16g\JJ	.	.	.	.	.
=50	=50	=50	=50	=50	=50	=50
8AAn/	16f#X/LL	.	.	4dd\	czło-	.
.	16g/	.	.	.	.	.
4An 4G\	16an/	.	.	.	.	.
.	16g/JJ	.	.	.	.	.
.	8b-/L	.	.	8cc#X\	-wiek,	[
8A 8G\	16a/L	.	.	8r	.	.
.	16g/JJ	[[	.	.	.	.
=51	=51	=51	=51	=51	=51	=51
!	!	!	!	!LO:TX:i:a:t=espress.	!	!
(4D\	16r	.	.	8.ccn\	Że	.
.	(16d/LL	.	.	.	.	.
.	16f#X/	.	.	.	.	.
.	16cc/JJ)	.	.	16cc\	to	.
4E-\	8r	.	.	8.b-\	se-	.
.	8b- 8g'/	.	.	.	.	.
.	.	.	.	16b-\	-raf	.
=52	=52	=52	=52	=52	=52	=52
4C/	16r	.	.	8an/	nie	.
.	16An/LL	>	.	.	.	.
.	16e-/	.	.	8g/	dja-	.
.	16an/JJ	.	.	.	.	.
4AAn/)	8r	.	.	8f#X/L	-be-	.
.	8g 8c#X 8A'/	]]	.	8g/J	.	.
!!LO:LB:g=original
=53	=53	=53	=53	=53	=53	=53
*xywh-#5:273,1989,3054,565	*xywh-#5:273,1989,3054,565	*	*	*xywh-#5:289,1701,3006,351	*	*
8D\	16f#X 16d 16An/	.	.	8an/	-łek.	.
.	(16d/LL	.	.	.	.	.
8r	16f#/	.	.	8r	.	.
.	16cc/JJ	.	.	.	.	.
[4G^\	8b-/L)	.	.	4r	.	.
.	(16d/L	.	.	.	.	.
.	16g/JJ	.	.	.	.	.
=54	=54	=54	=54	=54	=54	=54
8G\L]	16b-/LL)	.	.	2r	.	.
.	(16d-X/	.	.	.	.	.
8F'\	16g/	.	.	.	.	.
.	16b-/JJ	.	.	.	.	.
8En'\	8a-X'/L)	.	.	.	.	.
8C'\J	8gJ 8en 8B-'/	.	.	.	.	.
=55	=55	=55	=55	=55	=55	=55
8FF/	8fL 8A-/	.	.	4r	.	.
4c 4A-\	(8f/	p	.	.	.	.
!	!	!	!	!	!	!LO:DY:a
.	8a-/)	.	.	[4cc\	A	p
8B- 8G\	8en'/J	.	.	.	.	.
=56	=56	=56	=56	=56	=56	=56
8F\	8f'/L	.	.	8.cc\]	.	.
4c 4A-\	(8f/	.	.	.	.	.
.	.	.	.	16dd-X\	w tém	.
.	8a-/)	.	.	8cc\	zno-	.
8d-X 8B-\	8en'/J	.	.	8b-\	-wu	.
!!LO:LB:g=original
=57	=57	=57	=57	=57	=57	=57
*xywh-#5:328,2959,2969,527	*xywh-#5:328,2959,2969,527	*	*	*xywh-#5:321,2640,2996,325	*	*
8F\	8.f/L	.	.	8a-/	tak	.
4c 4A-\	.	.	.	16a-/LL	cię	.
.	(16g/Jk	.	.	16b-/JJ	.	.
.	16a-/LL	.	.	8cc\	koł-	.
.	16g/)	.	.	.	.	.
8c 8A-\	16a-'/	.	.	8ff\	-nie	.
.	16b-'/JJ	.	.	.	.	.
=58	=58	=58	=58	=58	=58	=58
8AA-/	8cc'\L	.	.	4ee-\	wzrok.	.
4c 4E-\	(8cc\	.	.	.	.	.
.	8ee-\)	.	.	8r	.	.
8d-X 8F-X\	8dd-X'\J	.	.	8dd-X\	jak	.
=59	=59	=59	=59	=59	=59	=59
8AA-/	8.cc\L	.	.	8cc\	gdy-	.
4c 4E-\	.	.	.	8cc\	-by	.
.	(16b-\Jk	.	.	.	.	.
.	16a-/LL	.	.	8.ee-\	ostrz	.
.	16g/	.	.	.	.	.
8d-X 8A-\	16f/	.	.	.	.	.
.	16f-X/JJ	.	.	16dd-X\	i-	.
=60	=60	=60	=60	=60	=60	=60
8AA-/	16e-/LL	.	.	8cc\	-gie-	.
.	16d/)	.	.	.	.	.
4c 4A-\	16e-'/	.	.	8cc\	-łek,	.
.	16f'/JJ	.	.	.	.	.
.	16g'/LL	.	.	4r	.	.
.	16a-'/	.	.	.	.	.
8c 8A-\	16b-'/	.	.	.	.	.
.	16cc'/JJ	.	.	.	.	.
!!LO:LB:g=original
=61	=61	=61	=61	=61	=61	=61
*xywh-#5:382,3848,3006,698	*xywh-#5:382,3848,3006,698	*	*	*xywh-#5:382,3511,2910,346	*	*
8r	8b-'\	.	.	8r	.	.
!	!	!LO:HP:b:t=cresc. sempre e stringendo:dur=3q:ext=s	!	!	!	!LO:HP:a:t=cresc. sempre e stringendo:dur=3q:ext=s
(16B-\LL	(4dd-X 4g\	<	.	4dd-X\	Że	<
16f-X\JJ	.	.	.	.	.	.
8e-\L)	.	.	.	.	.	.
8d-X'\J	8b- 8g'/)	.	.	8b-\	aż	.
=62	=62	=62	=62	=62	=62	=62
*	*^	*	*	*	*	*
8c'\L	(8.ee-/L	[4g-X\	.	.	8.ee-\L	krzy-	.
(16F\L	.	.	.	.	.	.	.
16f\JJ	16dd-X/K	.	.	.	16dd-X\Jk	.	.
8e-\L)	8cc/)	8g-\]	.	.	8cc\	-kniesz	.
8d-X'\J	8b-/J	8r	.	.	8r	.	.
*	*v	*v	*	*	*	*	*
=63	=63	=63	=63	=63	=63	=63
8r	8an/	.	.	8r	.	.
(16c\LL	4ee- [4a/	.	.	4ee-\	mi-	.
16g-X\JJ	.	.	.	.	.	.
8f\L)	.	.	.	.	.	.
8e-'\J	8cc 8a'/]	.	.	8cc\	-mo-	.
=64	=64	=64	=64	=64	=64	=64
*	*^	*	*	*	*	*
8dn'\L	(8.ff/L	[4a-X\	.	.	8.ff\L	-wol-	.
(16G\L	.	.	.	.	.	.	.
16g\JJ	16ee-/K	.	.	.	16ee-\Jk	.	.
8f\L)	8ddn/)	8a-\]	.	.	8ddn\	-nie:	.
8e-'\J	8cc'/J	8r	.	.	8r	.	.
*	*v	*v	*	*	*	*	*
!!LO:PB:g=original
=65	=65	=65	=65	=65	=65	=65
*xywh-#6:615,1072,2964,559	*xywh-#6:615,1072,2964,559	*	*	*xywh-#6:620,662,3006,453	*	*
16d\LL	16bn\	.	.	8r	.	.
(16G\JJ	16r	.	.	.	.	.
!	!	!	!	!	!	!LO:DY:a
4g^<\)	4gg'^\	f	.	4gg\	Ah!	f
8f'\	8ff'\	.	.	8ff\	to	.
=66	=66	=66	=66	=66	=66	=66
8e-'\L	8ee-'\L	.	.	8ee-\	sza-	.
8d'\J	8dd'\J	.	.	8dd\	-tan,	.
8c'\L	8cc'\L	.	.	8cc\	ach	.
(16Bn\L	(16bn\L	.	.	16bn\LL	to	.
16e-\JJ	16ee-\JJ	.	.	16ee-\JJ	.	.
=67	=67	=67	=67	=67	=67	=67
8d\L)	8dd\L)	.	.	8dd\	sza-	.
!	!	!	!	!	!	!LO:HP:a:t=dim.
8c'\	8cc'\	>	.	8cc\	-tan,	>
8B-X'\	8b-X'\	.	.	8b-X\	nie	.
8A-'\J	8a-'\J	]]	.	8a-/	dja-	.
=68	=68	=68	=68	=68	=68	=68
*^	*^	*	*	*	*	*
!	!	!	!	!	!	!	!	!LO:HP:a
[2G/	4r	[2g/	4r	.	.	2g/	-be-	>
!	!	!	!	!LO:HP:b:t=dim.	!	!	!	!
!	!	!	!LO:TX:t=P:problem=błędne wyświetlanie łuku	!	!	!	!	!
.	(4C\	.	(>4e- 4c\	>	.	.	.	.
*v	*v	*	*	*	*	*	*	*
=69	=69	=69	=69	=69	=69	=69	=69
4G] 4GG/)	4g/]	4d 4Bn\)	.	.	4g/	-łek!	]
(4FF/	(>4an/ 4e- 4c/	4ryy	.	.	4r	.	.
*	*v	*v	*	*	*	*	*
!!LO:LB:g=original
=70	=70	=70	=70	=70	=70	=70
*xywh-#6:594,2032,2958,623	*xywh-#6:594,2032,2958,623	*	*	*xywh-#6:487,1643,3113,410	*	*
[2BBB-/)	8.b-L 8.f 8.d/)	.	.	2r	.	.
!	!LO:TX:i:b:t=leggiero	!	!	!	!	!
.	(16a-X/Jk	.	.	.	.	.
.	16g/LL	.	.	.	.	.
.	16f/	.	.	.	.	.
.	16e-/	.	.	.	.	.
.	16d/JJ	.	.	.	.	.
=71	=71	=71	=71	=71	=71	=71
8BBB-/]	16c/LL	.	.	2r	.	.
.	16B-/)	.	.	.	.	.
8r	16An'/	.	.	.	.	.
.	16B-'/JJ	.	.	.	.	.
4r	16c'/LL	.	.	.	.	.
.	16d'/	.	.	.	.	.
.	16e-'/	.	.	.	.	.
.	16f'/JJ	.	.	.	.	.
=72	=72	=72	=72	=72	=72	=72
*^	*	*	*	*	*	*
!LO:N:vis=2	!	!	!	!	!	!	!
!LO:TX:t=P:problem=brak wyświetlania chorągiewki	!	!	!	!	!LO:SIC:v:l:s=I	!	!LO:DY:a
8EE-/	2EE-\	8r	pp	.	8.g/	J	p
4BB-/	.	(32G/LLL	.	.	.	.	.
.	.	32A-/	.	.	.	.	.
.	.	32An/	.	.	16f/	ztąd	.
.	.	32B-/JJJ	.	.	.	.	.
.	.	8g'/L)	.	.	8b-\	wie-	.
8BB-/	.	8fJ 8d 8A-X'/	.	.	8a-/	-cznie	.
=73	=73	=73	=73	=73	=73	=73	=73
!LO:N:vis=2	!	!	!	!	!	!	!
!LO:TX:t=P:problem=brak wyświetlania chorągiewki	!	!	!	!	!	!	!
8EE-/	2EE-\	8r	.	.	8.g/	świat	.
4BB-/	.	(32G/LLL	.	.	.	.	.
.	.	32A-/	.	.	.	.	.
.	.	32An/	.	.	16f/	się	.
.	.	32B-/JJJ	.	.	.	.	.
.	.	8g'/L)	.	.	8b-\	bie-	.
8BB-/	.	8fJ 8d 8A-X'/	.	.	8f/	-dzi,	.
!!LO:LB:g=original
=74	=74	=74	=74	=74	=74	=74	=74
*xywh-#6:604,2938,2948,613	*xywh-#6:604,2938,2948,613	*xywh-#6:604,2938,2948,613	*	*	*xywh-#6:636,2597,2969,383	*	*
!LO:N:vis=2	!	!	!	!	!	!	!
!LO:TX:t=P:problem=brak wyświetlania chorągiewki	!	!	!	!	!	!	!
8EE-/	2EE-\	8r	.	.	8.g/	Jak	.
4BB-/	.	(32G/LLL	.	.	.	.	.
.	.	32A-/	.	.	.	.	.
.	.	32An/	.	.	16a-/	roz-	.
.	.	32B-/JJJ	.	.	.	.	.
.	.	8g'/L)	.	.	8b-\	-wią-	.
8BB-/	.	8e-J 8G'/	.	.	8cc\	-zać	.
=75	=75	=75	=75	=75	=75	=75	=75
*	*	*	*	*below	*	*	*
!LO:N:vis=2	!	!	!	!	!	!	!
!LO:TX:t=P:problem=brak wyświetlania chorągiewki	!	!	!	!	!	!	!
8GG/	2GG\	8r	.	.	8dd\	ten	.
4G 4E-/	.	(32B-/LLL	.	2	8ff\	wę-	.
.	.	32c/	.	3	.	.	.
.	.	32d/	.	1	.	.	.
.	.	32e-/JJJ	.	2	.	.	.
.	.	8cc'/L)	.	.	8ee-\	-ze-	.
8G 8E-/	.	8ccJ 8e-'/	.	.	8b-\	-łek:	.
*v	*v	*	*	*	*	*	*
=76	=76	=76	=76	=76	=76	=76
(8En\L	8.r	.	.	8r	.	.
!	!	!	!	!LO:TX:i:a:t=espress.	!	!
8G\	.	.	.	8b-/L	Co	.
.	([16c^</	.	.	.	.	.
8E\	16c/LL]	.	.	8a-/J	.	.
.	16d-X/	.	.	.	.	.
8C\J)	16en/	.	.	8en/	w pa-	.
.	16b-/JJ	.	.	.	.	.
!!LO:LB:g=original
=77	=77	=77	=77	=77	=77	=77
*xywh-#6:614,3887,3001,682	*xywh-#6:614,3887,3001,682	*	*	*xywh-#6:594,3535,2937,367	*	*
(8F\	8a-/L)	.	.	8f/L	-nień-	.
4c 4A-\)	(32en/LL	.	.	8g/J	.	.
.	32f/	.	.	.	.	.
.	32g/	.	.	.	.	.
.	32f/JJJ	.	.	.	.	.
.	8dd-X'/L)	.	.	4a-/	-skich	.
8c 8A-'\	8ccJ 8a-'/	.	.	.	.	.
=78	=78	=78	=78	=78	=78	=78
(8F#X\L	8.r	.	.	8r	.	.
8c\	.	.	.	8ee-\	w pa-	.
.	([16d^</	.	.	.	.	.
8An\	16d/LL]	.	.	8dd\	-nień-	.
.	16e-/	.	.	.	.	.
8D\J)	16f#X/	.	.	8an/	-skich	.
.	16cc/JJ	.	.	.	.	.
=79	=79	=79	=79	=79	=79	=79
(8G\	8b-'/L)	.	.	8.b-\	o-	.
4d 4B-\)	(32f#X/LL	.	.	.	.	.
.	32g/	.	.	.	.	.
.	32an/	.	.	16an/	-czach	.
.	32g/JJJ	.	.	.	.	.
.	8b-'/L)	.	.	8b-\	sie-	.
8B- 8G'\	8dd-XJ 8fn'/	.	.	8dd-X\	-dzi	.
=80	=80	=80	=80	=80	=80	=80
(8C\L	8cc 8en'/	.	.	8.cc\	Czy	.
8G\	16r	.	.	.	.	.
.	([16c^</	.	.	16b-\	a-	.
8En\	16c/LL]	.	.	8a-X/L	-nio-	.
.	16d-X/	.	.	.	.	.
8C\J)	16en/	.	.	8g/J	.	.
.	16b-/JJ	.	.	.	.	.
!!LO:PB:g=original
=81	=81	=81	=81	=81	=81	=81
*xywh-#7:405,1111,2996,565	*xywh-#7:405,1111,2996,565	*	*	*xywh-#7:361,627,3012,522	*	*
8F\	8a-/L)	<	.	8a-/	-łek,	.
!	!	!	!	!	!	!LO:DY:a
4c 4A-\	(<32g/LL	.	.	8cc\L	czy	<
.	32a-/	.	.	.	.	.
.	32b-/	.	.	.	.	.
.	32a-/JJJ	.	.	.	.	.
.	8ff'\L)	.	.	8dd\J	.	.
8c 8A-\	8ee-J 8a-'\	[[	.	8ee-\	dja-	[[
=82	=82	=82	=82	=82	=82	=82
!	!	!	!	!	!	!LO:DY:a
8BB-/	8dd 8a-\	.	.	(4ff\	-be-	>
4B- 4A-\	16r	>	.	.	.	.
.	(16Bn/	.	.	.	.	.
.	16c/LL	.	.	4a-/)	.	]]
.	16d/	.	.	.	.	.
8B- 8A-\	16e-/	.	.	.	.	.
.	16f/JJ	]]	.	.	.	.
=83	=83	=83	=83	=83	=83	=83
8E-\	8g/L)	.	.	4g/	-łek?	.
4B- 4G\	(32d/LL	.	.	.	.	.
.	32e-/	.	.	.	.	.
.	32f/	.	.	.	.	.
.	32e-/JJJ	.	.	.	.	.
.	8cc'/L)	.	.	4r	.	.
8B- 8G\	8b-J 8g'/	.	.	.	.	.
=84	=84	=84	=84	=84	=84	=84
8AA-/	8r	mf	.	8r	.	.
!	!	!	!	!	!	!LO:DY:a
4B- 4A-\	(32d/LLL	.	.	4dd\	Czy	mf
.	32e-/	.	.	.	.	.
.	32en/	.	.	.	.	.
.	32f/JJJ	.	.	.	.	.
.	8b-'/)	.	.	.	.	.
8B- 8A-\	8r	.	.	16cc\LL	a-	.
.	.	.	.	16b-\JJ	.	.
!!LO:LB:g=original
=85	=85	=85	=85	=85	=85	=85
*xywh-#7:362,2044,3028,575	*xywh-#7:362,2044,3028,575	*	*	*xywh-#7:421,1735,2926,341	*	*
8GG/	8r	.	.	8ee-\	-nio-	.
4B- 4G\	(32an\LLL	.	.	8g/	-łek,	.
.	32b-\	.	.	.	.	.
.	32cc\	.	.	.	.	.
.	32b-\JJJ	.	.	.	.	.
.	8ee-'\L)	.	.	4r	.	.
8B- 8F\	8gJ 8d-X'\	.	.	.	.	.
=86	=86	=86	=86	=86	=86	=86
8EEn/	8r	pp	.	8r	.	.
!	!	!	!	!	!	!LO:DY:a
4G 4En\	(32An/LLL	.	.	4b-\	czy	p
.	32B-/	.	.	.	.	.
.	32c/	.	.	.	.	.
.	32d-X/JJJ	.	.	.	.	.
.	8b-'/)	.	.	.	.	.
8G 8E\	8r	.	.	16a-/LL	dja-	.
.	.	.	.	16g/JJ	.	.
=87	=87	=87	=87	=87	=87	=87
8FF/	8r	.	.	8dd-X\	-be-	.
4A- 4F\	(<32en/LLL	.	.	8cc\	-łek?	.
.	32f/	.	.	.	.	.
.	32g/	.	.	.	.	.
.	32f/JJJ	.	.	.	.	.
.	8dd-X'\L)	.	.	4r	.	.
8A- 8F\	8ccJ 8a-'\	.	.	.	.	.
=88	=88	=88	=88	=88	=88	=88
8AA-/	8r	.	.	8r	.	.
4B- 4A-\	(32b-\LLL	.	.	8f/L	Czy	.
.	32an\	.	.	.	.	.
.	32cc\	.	.	.	.	.
.	32b-\JJJ	.	.	.	.	.
.	8d'/)	.	.	8g/J	.	.
8B- 8A-\	8r	.	.	8a-/	a-	.
!!LO:LB:g=original
=89	=89	=89	=89	=89	=89	=89
*^	*	*	*	*	*	*
*xywh-#7:384,2982,3006,602	*xywh-#7:384,2982,3006,602	*xywh-#7:384,2982,3006,602	*	*	*xywh-#7:416,2620,2996,378	*	*
!	!	!	!	!	!	!	!LO:DY:a
8GG\L	4ryy	16r	<	.	8b-\	-nio-	<
.	.	(16b-/LL	.	.	.	.	.
8B-J 8G\	.	16a-X/	.	.	8cc\	-łek,	.
.	.	16g/JJ	.	.	.	.	.
8AAn/L	4AAn\	16f/LL	.	.	8dd\	czy	.
.	.	16e-/)	.	.	.	.	.
8F/J	.	16d'/	.	.	8ee-\	dja-	[[
.	.	16c'/JJ	[[	.	.	.	.
=90	=90	=90	=90	=90	=90	=90	=90
!LO:TX:t=P:problem=brak wyświetlania chorągiewki	!	!	!	!	!	!	!LO:DY:a
!LO:N:vis=2	!	!	!	!	!	!	!
8BB-/	2BB-\	(16B-/LL	.	.	(2gg\	-be-	f
.	.	16An/)	.	.	.	.	.
4G/	.	16B-'/	.	.	.	.	.
!	!	!	!LO:HP:b:t=cresc.	!	!	!	!
.	.	16c'/JJ	<	.	.	.	.
.	.	16d'/LL	.	.	.	.	.
.	.	16e-'/	.	.	.	.	.
8B- 8G/	.	16f'/	.	.	.	.	.
.	.	16g'/JJ	.	.	.	.	.
*v	*v	*	*	*	*	*	*
=91	=91	=91	=91	=91	=91	=91
!LO:TX:t=P:problem=brak wyświetlania chorągiewki	!	!	!	!	!	!
!LO:N:vis=2	!	!	!	!	!	!
8BB-/	(16a-/LL	.	.	2ff\)	.	.
.	16g/)	.	.	.	.	.
4d 4B- 4A-\	16f'/	.	.	.	.	.
.	16g'/JJ	.	.	.	.	.
.	16a-'\LL	.	.	.	.	.
.	16b-'\	.	.	.	.	.
8d 8B- 8A-\	16cc'\	.	.	.	.	.
.	16dd'\JJ	.	.	.	.	.
=92	=92	=92	=92	=92	=92	=92
*^	*	*	*	*	*	*
!LO:TX:t=P:problem=brak wyświetlania chorągiewki	!	!	!	!	!	!	!
!LO:N:vis=2	!	!	!	!	!	!	!
8E-/	2E-\	8ee-'\	f	.	4ee-\	-łek?	.
(4e-/	.	(<32g/LLL	.	.	.	.	.
.	.	32a-/	.	.	.	.	.
.	.	32an/	.	.	.	.	.
.	.	32b-/JJJ	.	.	.	.	.
.	.	8gg\L)	.	.	4r	.	.
8d/)	.	(8ffJ 8a-X\	.	.	.	.	.
!!LO:LB:g=original
=93	=93	=93	=93	=93	=93	=93	=93
*xywh-#7:347,3850,3054,1172	*xywh-#7:347,3850,3054,1172	*xywh-#7:347,3850,3054,1172	*	*	*xywh-#7:343,3577,3102,335	*	*
!LO:TX:t=P:problem=brak wyświetlania chorągiewki	!	!	!	!	!	!	!
!LO:N:vis=2	!	!	!	!	!	!	!
8E-/L	(2E-\	8ee-L 8g/)	.	.	2r	.	.
8G/	.	(<32e-/LL	.	.	.	.	.
.	.	32f/	.	.	.	.	.
.	.	32f#X/	.	.	.	.	.
.	.	32g/JJJ	.	.	.	.	.
8An/	.	8ee-\L)	.	.	.	.	.
8Bn/J	.	(8ddJ 8fn\	.	.	.	.	.
=94	=94	=94	=94	=94	=94	=94	=94
8c 8E-\)	8ryy	8ccL 8e-/)	.	.	2r	.	.
(4AA-/	(4.AA-\	(32c/LL	p	.	.	.	.
.	.	32d-X/	.	.	.	.	.
.	.	32dn/	.	.	.	.	.
.	.	32e-/JJJ	.	.	.	.	.
.	.	8cc/L)	.	.	.	.	.
8En/	.	(8b-J (8d-X/	.	.	.	.	.
*v	*v	*	*	*	*	*	*
=95	=95	=95	=95	=95	=95	=95
!	!LO:TX:t=P:problem=mixed beam	!	!	!	!	!
8F 8AA-/))	8a-\L 8c\))	.	.	2r	.	.
!	!LO:TX:t=P:problem=błędne wyświetlanie łuku	!	!	!	!	!
8r	(<32G</LL	.	.	.	.	.
.	32A-</	.	.	.	.	.
.	32An</	.	.	.	.	.
.	32B-</JJJ	.	.	.	.	.
8r	8g'/L)	.	.	.	.	.
8BB-'/	8dJ 8A-X'/	f	.	.	.	.
=96	=96	=96	=96	=96	=96	=96
8EE-'/	8e- 8G'/	.	.	2r	.	.
8r	8r	.	.	.	.	.
4r	4r	.	.	.	.	.
==	==	==	==	==	==	==
*-	*-	*-	*-	*-	*-	*-
!!!system-decoration: s1{(s2,s3)}
!!!RDF**kern: > = above
!!!RDF**kern: < = below
!!!ENC: Andrzej Gręziak
!!!END: 2022-03-11
!!!ENC: Kamil Watkowski
!!!END: 2022-03-15
!!!IIIF: https://polona.pl/iiif/item/ODE1NjA4OTA/manifest.json
!!!ENC-iiif: Jan Barakat
!!!END-iiif: 2022-08-31
!!!YEC: Copyright 2022 Narodowy Instytut Fryderyka Chopina (https://polishscores.org)
!!!YEM: License CC-BY-4.0 (https://creativecommons.org/licenses/by/4.0)
